X: 2307
T: BONNIE DUNDEE
R: Scotch Jig.
%R: jig
B: James Kerr "Merry Melodies" v.2 p.34 #307
Z: 2016 John Chambers <jc:trillian.mit.edu>
M: 6/8
L: 1/8
K: G
(uG/B/) |\
ded ded | gfe (d2c) | BdD BdD | ABA ABc |\
ded ded | gfe (d2c) | BdD AdF | GAG G2 :|
|: uD |\
G3 (c2B) | AFD D2F | ABA ABc | cBB uB2uG |\
BAB cBc | dcd edc | BdD AdD | GAG G2 :|
